X:1
T:Bergeret sans roch
T:(Basse dansse 2)
C:Tielman Susato
S:Tileman Susato: Danserye (1551)
R:Basse dance
M:3/2
L:1/2
K:C
C>B, C/D/|ECC|C/D/E/C/D/E/|FD2|FD/F/E/D/|E>D E/C/|F/E/D/C/B,/A,/|B,2B,|
C>B, C/D/|ECC|C/D/E/C/D/E/|FD2|E>D C/B,/|CD>C|C2B,|C2z:|
C>D E/F/|G>F E/D/|F2E|F2z|F>E D/C/|DE>D|D2^C|D2z|
C>D E/F/|G>F E/D/|F2E|F2z|E>D C/B,/|CD>C|C2B,|C2z|
C>B, C/D/|ECC|C/D/E/C/D/E/|FD2|FD/F/E/D/|E>D C/C/|F/E/D/C/B,/A,/|B,2B,|
C>B, C/D/|ECC|C/D/E/C/D/E/|FD2|E>D C/B,/|CD>C|C2B,|C2z|
C>B, C/D/|ECC|C/D/E/C/D/E/|FD2|FD/F/E/D/|E>D C/C/|F/E/D/C/B,/A,/|B,2B,|
C>B, C/D/|ECC|C/D/E/C/D/E/|FD2|E>D C/B,/|CD>C|C2B,|C2z|]
